symbols-de/shields/motorway_5x2.svg

<?xml version="1.0" encoding="UTF-8" standalone="no"?>
<svg
   xmlns:dc="http://purl.org/dc/elements/1.1/"
   xmlns:cc="http://creativecommons.org/ns#"
   xmlns:rdf="http://www.w3.org/1999/02/22-rdf-syntax-ns#"
   xmlns:svg="http://www.w3.org/2000/svg"
   xmlns="http://www.w3.org/2000/svg"
   xmlns:sodipodi="http://sodipodi.sourceforge.net/DTD/sodipodi-0.dtd"
   xmlns:inkscape="http://www.inkscape.org/namespaces/inkscape"
   width="100%"
   height="100%"
   viewBox="0 0 39.0 24.0"
   id="svg2"
   version="1.1"
   inkscape:version="0.91 r13725"
   sodipodi:docname="autobahn_5x2.svg">
  <metadata
     id="metadata9">
    <rdf:RDF>
      <cc:Work
         rdf:about="">
        <dc:format>image/svg+xml</dc:format>
        <dc:type
           rdf:resource="http://purl.org/dc/dcmitype/StillImage" />
        <dc:title></dc:title>
      </cc:Work>
    </rdf:RDF>
  </metadata>
  <defs
     id="defs7" />
  <sodipodi:namedview
     pagecolor="#ffffff"
     bordercolor="#666666"
     borderopacity="1"
     objecttolerance="10"
     gridtolerance="10"
     guidetolerance="10"
     inkscape:pageopacity="0"
     inkscape:pageshadow="2"
     inkscape:window-width="1162"
     inkscape:window-height="714"
     id="namedview5"
     showgrid="false"
     inkscape:zoom="9.0512821"
     inkscape:cx="19.5"
     inkscape:cy="12.055241"
     inkscape:window-x="352"
     inkscape:window-y="135"
     inkscape:window-maximized="0"
     inkscape:current-layer="svg2" />
  <path
     style="fill:#365eaf;fill-opacity:1;stroke:#0528a2;stroke-width:1;stroke-miterlimit:4;stroke-dasharray:none;stroke-opacity:1"
     d="m 19.5,0.4999978 c -0.2724,0 -0.408203,0.0033 -0.408203,0.01172 L 1.113732,2.2812488 C 0.705129,2.3660988 0.5,2.4943618 0.5,2.6640618 c 0,6.2239582 0,12.4479172 0,18.6718752 0,0.1697 0.205128,0.297965 0.613732,0.382812 l 17.978065,1.769531 c 0,0.0085 0.135806,0.01172 0.408203,0.01172 0.272402,0 0.408204,-0.0033 0.408204,-0.01172 l 17.978064,-1.769531 c 0.408604,-0.08485 0.613733,-0.213113 0.613733,-0.382812 0,-6.223959 0,-12.447917 0,-18.6718752 0,-0.1697 -0.205129,-0.297965 -0.613733,-0.382813 L 19.908204,0.5117178 c 0,-0.0085 -0.135806,-0.01172 -0.408204,-0.01172 z"
     id="path6"
     inkscape:connector-curvature="0"
     sodipodi:nodetypes="sccccccsccccccs" />
</svg>

<?xml version="1.0" encoding="UTF-8"?>
<svg xmlns="http://www.w3.org/2000/svg" xmlns:xlink="http://www.w3.org/1999/xlink" width="40pt" height="30pt" viewBox="0 0 40 30" version="1.1">
<g id="surface1">
<path style="fill-rule:nonzero;fill:rgb(21.176471%,36.862745%,68.627451%);fill-opacity:1;stroke-width:1;stroke-linecap:butt;stroke-linejoin:miter;stroke:rgb(1.960784%,15.686275%,63.529412%);stroke-opacity:1;stroke-miterlimit:4;" d="M 19.5 0.5 C 19.225781 0.5 19.09248 0.503125 19.09248 0.5125 L 1.112109 2.28125 C 0.70459 2.365625 0.498926 2.49375 0.498926 2.6625 C 0.498926 8.8875 0.498926 15.1125 0.498926 21.334375 C 0.498926 21.50625 0.70459 21.634375 1.112109 21.71875 L 19.09248 23.4875 C 19.09248 23.496875 19.225781 23.5 19.5 23.5 C 19.774219 23.5 19.90752 23.496875 19.90752 23.4875 L 37.887891 21.71875 C 38.29541 21.634375 38.501074 21.50625 38.501074 21.334375 C 38.501074 15.1125 38.501074 8.8875 38.501074 2.6625 C 38.501074 2.49375 38.29541 2.365625 37.887891 2.28125 L 19.90752 0.5125 C 19.90752 0.503125 19.774219 0.5 19.5 0.5 Z M 19.5 0.5 " transform="matrix(1.025641,0,0,1.25,0,0)"/>
</g>
</svg>
